app/src/main/assets/symbols/transport/helicopter.svg

﻿<?xml version="1.0" encoding="utf-8"?>
<svg xmlns="http://www.w3.org/2000/svg" width="16" height="16" viewBox="0 0 16 16">
	<path fill-rule="evenodd" d="M 8 0.5 C 3.8578644 0.5 0.5 3.8579 0.5 8 C 0.5 12.1421 3.8578644 15.5 8 15.5 C 12.142136 15.5 15.5 12.1421 15.5 8 C 15.5 3.8579 12.142136 0.5 8 0.5 z M 8 1.5 C 11.589851 1.5 14.5 4.4101491 14.5 8 C 14.5 11.589851 11.589851 14.5 8 14.5 C 4.4101491 14.5 1.5 11.589851 1.5 8 C 1.5 4.4101491 4.4101491 1.5 8 1.5 z M 5 3 L 4.25 3.75 L 4.25 12.25 C 4.25 12.2501 4.9999904 13 5 13 L 6 13 L 6 9 L 10 9 L 10 13 L 11 13 L 11.75 12.25 L 11.75 3.75 L 11 3 L 10 3 L 10 7 L 6 7 L 6 3 L 5 3 z"
	style="fill:#8461c4"/>
</svg>

<?xml version="1.0" encoding="UTF-8"?>
<svg width="16" height="16" viewBox="0 0 16 16" xmlns="http://www.w3.org/2000/svg">
<path d="m8 0.5c-4.1421 0-7.5 3.3579-7.5 7.5s3.3579 7.5 7.5 7.5c4.1421 0 7.5-3.3579 7.5-7.5s-3.3579-7.5-7.5-7.5zm0 1c3.5899 0 6.5 2.9101 6.5 6.5 0 3.5899-2.9101 6.5-6.5 6.5-3.5899 0-6.5-2.9101-6.5-6.5 0-3.5899 2.9101-6.5 6.5-6.5zm-3 1.5-0.75 0.75v8.5c0 1e-4 0.74999 0.75 0.75 0.75h1v-4h4v4h1l0.75-0.75v-8.5l-0.75-0.75h-1v4h-4v-4h-1z" fill="#8461c4" fill-rule="evenodd"/>
</svg>
